src/client/web-contents/img/common/badge/badge_status_05.svg

<svg height="32" viewBox="0 0 64 32" width="64" xmlns="http://www.w3.org/2000/svg"><g fill="none" fill-rule="evenodd"><rect fill="#6d7583" height="32" rx="4" width="64"/><path d="m23.4 24.82h-1.96v-9.02h-1.76v8.18h-1.94v-16.62h1.94v6.72h1.76v-7.08h1.96zm-6.2-5.66-1.2 1.48c-1.2-.76-2.76-2.66-3.24-4.36-.4 1.76-1.94 3.8-3.48 4.76l-1.28-1.38c2.36-1.56 3.78-4.14 3.78-7.68v-1.24h-3.14v-1.64h8.06v1.64h-2.92v1.18c0 3.54 1.42 6.08 3.42 7.24zm21.44-11.22v6.36h-11.84v-6.36zm-4.84 13.04h-2.04v-3.28h-7.08v-1.66h16.1v1.66h-6.98zm5.1 3.32h-12.14v-5.04h2.06v3.42h10.08zm-2.32-11.64v-3.08h-7.72v3.08zm14.68 0c0 2.46-2.04 4.06-4.66 4.06-2.6 0-4.56-1.64-4.56-4.06 0-2.46 1.98-4.26 4.56-4.26 2.64 0 4.66 1.76 4.66 4.26zm-2.06-.02c0-1.54-1.16-2.48-2.6-2.48-1.38 0-2.56 1-2.56 2.48 0 1.42 1.2 2.34 2.56 2.34 1.4 0 2.6-.92 2.6-2.34zm6.68-5.64v17.82h-2.04v-17.82zm-3.04 11.62.16 1.64c-3.82.42-7.66.6-11.84.62l-.32-1.76c1.9.02 3.84.02 5.92-.1 2.54-.1 4.54-.24 6.08-.4z" fill="#fff"/></g></svg>

<?xml version="1.0" encoding="UTF-8" standalone="no"?>
<svg width="64px" height="32px" viewBox="0 0 64 32" version="1.1" xmlns="http://www.w3.org/2000/svg" xmlns:xlink="http://www.w3.org/1999/xlink">
    <!-- Generator: Sketch 50.2 (55047) - http://www.bohemiancoding.com/sketch -->
    <title>graphic_badge_status_05</title>
    <desc>Created with Sketch.</desc>
    <defs></defs>
    <g id="Icon_Badge_Graphic" stroke="none" stroke-width="1" fill="none" fill-rule="evenodd">
        <g id="##Element/Badge/Status05">
            <rect id="Rectangle-2" fill="#6D7583" x="0" y="0" width="64" height="32" rx="4"></rect>
            <path d="M23.4,24.82 L21.44,24.82 L21.44,15.8 L19.68,15.8 L19.68,23.98 L17.74,23.98 L17.74,7.36 L19.68,7.36 L19.68,14.08 L21.44,14.08 L21.44,7 L23.4,7 L23.4,24.82 Z M17.2,19.16 L16,20.64 C14.8,19.88 13.24,17.98 12.76,16.28 C12.36,18.04 10.82,20.08 9.28,21.04 L8,19.66 C10.36,18.1 11.78,15.52 11.78,11.98 L11.78,10.74 L8.64,10.74 L8.64,9.1 L16.7,9.1 L16.7,10.74 L13.78,10.74 L13.78,11.92 C13.78,15.46 15.2,18 17.2,19.16 Z M38.64,7.94 L38.64,14.3 L26.8,14.3 L26.8,7.94 L38.64,7.94 Z M33.8,20.98 L31.76,20.98 L31.76,17.7 L24.68,17.7 L24.68,16.04 L40.78,16.04 L40.78,17.7 L33.8,17.7 L33.8,20.98 Z M38.9,24.3 L26.76,24.3 L26.76,19.26 L28.82,19.26 L28.82,22.68 L38.9,22.68 L38.9,24.3 Z M36.58,12.66 L36.58,9.58 L28.86,9.58 L28.86,12.66 L36.58,12.66 Z M51.26,12.66 C51.26,15.12 49.22,16.72 46.6,16.72 C44,16.72 42.04,15.08 42.04,12.66 C42.04,10.2 44.02,8.4 46.6,8.4 C49.24,8.4 51.26,10.16 51.26,12.66 Z M49.2,12.64 C49.2,11.1 48.04,10.16 46.6,10.16 C45.22,10.16 44.04,11.16 44.04,12.64 C44.04,14.06 45.24,14.98 46.6,14.98 C48,14.98 49.2,14.06 49.2,12.64 Z M55.88,7 L55.88,24.82 L53.84,24.82 L53.84,7 L55.88,7 Z M52.84,18.62 L53,20.26 C49.18,20.68 45.34,20.86 41.16,20.88 L40.84,19.12 C42.74,19.14 44.68,19.14 46.76,19.02 C49.3,18.92 51.3,18.78 52.84,18.62 Z" id="재문의" fill="#FFFFFF"></path>
        </g>
    </g>
</svg>
